X:1
T:Title
%%score { ( 1 4 5 ) | ( 2 3 ) }
L:1/8
Q:1/4=87
M:6/8
K:Bb
V:1 treble nm="Grand Piano"
V:4 treble 
V:5 treble 
V:2 bass 
V:3 bass 
V:1
 [B,D][CE][_D=E] [=DF][DG][B,D] | [DF]3 [DF]3 | [Fd][Ec][DB] [DF][B,D][EG] | E6 | cBA GAG | %5
w: Mrs.~C.~H.~Morris * * * * *|||||
 [DF]3 [DB]3 | [=EB][EB][EB] GAB | c3 _d3 | [Fd]>[Fd][Fd] [Fd][Ec][DB] | [DF]2 [B,D] .[DF]3 | %10
w: |||||
 [DF][DG][B,D] [DF][DG][DB] | B2 A .A3 | [Ge]2 [Ge] [Ge]dc | B2 A .A3 | [Fc][F=B][Fc] [=Ed]2 [Ec] | %15
w: |||||
 c6 | .[DF]6 | [EG]6 | .[=EG]6 | [FA]6 | [B,FB][B,FB][Fc] [Fd][Fd][_Af] | [Ge]3 G3 | %22
w: |||||||
 BAB [FBd]2 [EAc] | [DFB]6 |] %24
w: ||
V:2
 [B,,F,][B,,F,][B,,F,] [B,,B,][B,,B,][B,,F,] | [B,,B,]3 [B,,B,]3 | %2
 [B,,B,][B,,B,][B,,B,] [B,,B,][B,,F,][B,,B,] | [F,A,C]6 | %4
 [F,A,E][F,B,D][F,CE] [F,A,E][F,A,E][F,A,E] | [B,,B,]3 [G,B,]3 | %6
 [C,G,][C,G,][C,G,][K:treble] [B,C=E][A,CF][K:bass][G,CE] | E3 =E3 | %8
 [B,,B,]>[B,,B,][B,,B,] [B,,B,][B,,B,][B,,B,] | [B,,B,]2 [B,,F,] .[B,,B,]3 | %10
 [B,,B,][B,,B,][B,,F,] [B,,B,][B,,B,][B,,B,] | [F,DF]2 [F,CF] .[F,CF]3 | %12
 [F,A,]2 [F,A,] [F,A,][F,B,F][F,EF] | [F,DF]2 [F,CF] .[F,CF]3 | %14
 [C,A,][C,_A,][C,=A,] [C,B,]2 [C,G,] | [F,A,F]2 [G,B,] [A,C]3 | .[B,,B,]3 z _DB,, | E,E,E, .E,3 | %18
 .C,3 z =EC, | F,F,F, .F,3 | D,D,[C,A,] [B,,B,][B,,B,][D,B,] | [E,B,]3 [E,B,E]3 | %22
 [F,DF][F,CF][F,DF] F,2 F, | B,,6 |] %24
V:3
 x6 | x6 | x6 | x6 | x6 | x6 | x3[K:treble] x2[K:bass] x | [F,A,]6 | x6 | x6 | x6 | x6 | x6 | x6 | %14
 x6 | x6 | z3 .B,,3 | x6 | z3 .C,3 | x6 | x6 | x6 | x6 | x6 |] %24
V:4
 x6 | x6 | x6 | x6 | x6 | x6 | x6 | x6 | x6 | x6 | x6 | x6 | x6 | x6 | x6 | z2 =E _E3 | %16
 z3 z =E[B,DF] | B,B,B, .B,3 | .C3 z ^F[C=EG] | CCC .C3 | x6 | x6 | x6 | x6 |] %24
V:5
 x6 | x6 | x6 | x6 | x6 | x6 | x6 | x6 | x6 | x6 | x6 | x6 | x6 | x6 | x6 | x6 | z3 .B,3 | x6 | %18
 z3 .C3 | x6 | x6 | x6 | x6 | x6 |] %24

